!!!COM:	Johannes Ockeghem
!!!CDT:	~1425-1497/02/06
!!!OTL:	Mort tu as navr&eacute; / Miserere
!!!AGN:	Chanson
!!!SCT:	Ock3013
!!!SCA:	Ock3013
!!!voices:	4
**kern	**kern	**kern	**kern
*staff4	*staff3	*staff2	*staff1
*Ivox	*Ivox	*Ivox	*Ivox
*I"Contratenor Basis	*I"Tenor	*I"Contratenor	*I"Superius
*I'Cb	*I'T	*I'Ct	*I'S
*>[A,A,B]	*>[A,A,B]	*>[A,A,B]	*>[A,A,B]
*>norep[A,B]	*>norep[A,B]	*>norep[A,B]	*>norep[A,B]
*>A	*>A	*>A	*>A
*clefF4	*clefF4	*clefGv2	*clefG2
*k[b-]	*k[]	*k[]	*k[]
*M3/1	*M3/1	*M3/1	*M3/1
*met(O)	*met(O)	*met(O)	*met(O)
=1-	=1-	=1-	=1-
!	!	!	!LO:TX:Z=25:t=Form&colon; aab (each stanza)
1AA	0A	1e	0.r
0D	.	1.f	.
.	[1A	.	.
.	.	2e\	.
=2	=2	=2	=2
1F	1A]	2d\	0.r
.	.	2c\	.
2E\	2G\	1c	.
2C/	2E\	.	.
1D	1F	2.B\	.
.	.	4A/	.
=3	=3	=3	=3
0C	0G	2c\	0.r
.	.	2d\	.
.	.	1e	.
1D	[1F	2A/	.
.	.	2B-i\	.
=4	=4	=4	=4
1AA	2F\]	2A/	0.r
.	2E\	2c\	.
0BB-	1.D	2B-i\	.
.	.	2.G/	.
.	.	4F/	.
.	2C/	2G/	.
=5	=5	=5	=5
0AA	0E	0.A	1.c
.	.	.	2d/
1AA	1C	.	1e
=6	=6	=6	=6
1BB-	1D	1r	1d
0C	1.E	1G	2.g/
.	.	.	4f/
.	.	1c	1e
.	2G\	.	.
=7	=7	=7	=7
1D	2F\	1A	0.d
.	2E\	.	.
0GG	0G	0B-i	.
=8	=8	=8	=8
1AA	1E	0A	0c
1r	0F	.	.
1D	.	2r	2A/
.	.	2F/	2B/
=9	=9	=9	=9
1C	0E	1G	1c
1AA	.	1A	1c
1BB-	[1D	1F	1d
=10	=10	=10	=10
1GG	1D]	1G	1B-i
0AA	0C	0E	0A
=11	=11	=11	=11
0A	0.D	1D	1r
.	.	1.d	0f#i
1A	.	.	.
.	.	2c\	.
=12	=12	=12	=12
1G	1E	1B	1g
0D	0F	1.A	1.a
.	.	[2d\	2g/
=13	=13	=13	=13
1r	1G	1.d]	1b-i
2D\	2F\	.	2a/
2E\	2G\	2c\	1g
1D	1A	1d	.
.	.	.	2f#i/
=14	=14	=14	=14
[0.GG	0.G	1r	1.g
.	.	0d	.
.	.	.	2b-i\
.	.	.	2a/
.	.	.	[2g/
=15	=15	=15	=15
0GG]	1D	1d	2g/]
.	.	.	4f/
.	.	.	4e/
.	0G	0B-i	1d
1GG	.	.	2r
.	.	.	2e/
=16	=16	=16	=16
1D	1F	0A	2f/
.	.	.	2d/
0AA	1E	.	2.c/
.	.	.	4d/
.	1C	[1A	1e
=17	=17	=17	=17
1F	1D	2A/]	2d/
.	.	2B\	2f/
2E\	2C/	2.c\	2g/
2C/	2AA/	.	2a/
.	.	4B\	.
1D	1BB-i	4G/	4g/
.	.	4A/	4f/
.	.	4G/	4e/
.	.	4F/	4d/
=18	=18	=18	=18
2E\	2AA/	0.A	2c/
2F\	1D	.	2A/
1D	.	.	2d/
.	2F\	.	1d
1AA	1E	.	.
.	.	.	2c#i/
=19	=19	=19	=19
1r	0.D	0.A	0.d
0A	.	.	.
!!LO:LB:i:g=z
=20:|!	=20:|!	=20:|!	=20:|!
*>B	*>B	*>B	*>B
*clefF4	*clefF4	*clefGv2	*clefG2
*k[b-]	*k[]	*k[]	*k[]
*M2/1	*M2/1	*M2/1	*M2/1
*met(C|)	*met(C|)	*met(C|)	*met(C|)
!!section: Son corps est plaint/Quem in cruce
!!!OMD: Son corps est plaint/Quem in cruce
1.AA	[0E	[0A	0r
2BB-/	.	.	.
=21	=21	=21	=21
1C	1E]	1A]	0r
1D	1F	1B	.
=22	=22	=22	=22
0E	0G	1.c	0r
.	.	2B\	.
=23	=23	=23	=23
[0D	[0A	0d	0r
=24	=24	=24	=24
0D]	0A]	1r	0f
.	.	1D	.
=25	=25	=25	=25
0AA	0A	1E	1e
.	.	1F	1c
=26	=26	=26	=26
[0GG	[0B-i	3%4GV	0d
.	.	[3%2DZ	.
=27	=27	=27	=27
0GG]	0B-]	3%2DV]	0d
.	.	3%4GZ	.
=28	=28	=28	=28
0AA	0A	[0E	1.c
.	.	.	2d/
=29	=29	=29	=29
[0C	0G	1E]	0e
.	.	[1c	.
=30	=30	=30	=30
0C]	0G	0c]	1r
.	.	.	1e
=31	=31	=31	=31
0D	0F	0A	1f
.	.	.	1d
=32	=32	=32	=32
1C	1E	0r	1e
1AA	[1A	.	1c
=33	=33	=33	=33
0E	1A]	0r	0B
.	1G#i	.	.
=34	=34	=34	=34
[0AA	0A	1c	0A
.	.	1d	.
=35	=35	=35	=35
0AA]	0r	0e	0c
=36	=36	=36	=36
0r	0A	1.c	1f
.	.	.	[1e
.	.	2B\	.
=37	=37	=37	=37
0r	1G	1B	2e/]
.	.	.	2d/
.	1F	1A	[1d
=38	=38	=38	=38
0r	0E	2G/	1d]
.	.	1G	.
.	.	.	1c#i
.	.	2F/	.
=39	=39	=39	=39
0D	1D	[0A	1d
.	[1F	.	2A/
.	.	.	2B/
=40	=40	=40	=40
0AA	1F]	0A]	2d/
.	.	.	1c#i
.	1E	.	.
.	.	.	2B/
=41	=41	=41	=41
0BB-	0D	1F	1d
.	.	1G	1r
=42	=42	=42	=42
0AA	0E	1A	1.c
.	.	[1A	.
.	.	.	2d/
=43	=43	=43	=43
0AA	0C	2A/]	0e
.	.	2G/	.
.	.	1E	.
=44	=44	=44	=44
0A	0D	1D	0f
.	.	[1d	.
=45	=45	=45	=45
0F	0D	2d\]	1d
.	.	2c\	.
.	.	[1A	[1a
=46	=46	=46	=46
0D	0r	1A]	2a/]
.	.	.	2g/
.	.	1d	1f
=47	=47	=47	=47
1C	0r	1e	1e
[1D	.	1f	1d
=48	=48	=48	=48
1D]	0r	1d	1f
1BB-	.	1r	2e/
.	.	.	2d/
=49	=49	=49	=49
1C	0r	1e	2c/
.	.	.	2B/
1D	.	2d\	1A
.	.	2d\	.
=50	=50	=50	=50
1AA	1A	1c	0r
1r	1G	2B\	.
.	.	2c\	.
=51	=51	=51	=51
1D	1F	1d	0r
1C	1E	1e	.
=52	=52	=52	=52
1BB-	1G	1d	0r
1AA	1A	2c\	.
.	.	[2e\	.
=53	=53	=53	=53
1C	0A	4e\]	0r
.	.	4d\	.
.	.	2f\	.
1D	.	[1d	.
=54	=54	=54	=54
1D	1r	2d\]	1.f
.	.	2c\	.
1r	1F	2B\	.
.	.	2A/	4e/
.	.	.	4d/
=55	=55	=55	=55
1.AA	1E	1A	1.c
.	2F\	1r	.
[2GG/	[2G\	.	[2d/
=56	=56	=56	=56
1GG]	2G\]	1B-i	1d]
.	2F\	.	.
1AA	1E	1A	1c
=57	=57	=57	=57
1BB-	1D	1G	2.d/
.	.	.	8c/L
.	.	.	8B/J
1AA	1E	1A	2c/
.	.	.	2e/
=58	=58	=58	=58
0D	0F	0B-i	0d
=59	=59	=59	=59
0AA	0E	0A	0c#i
=60	=60	=60	=60
0Dl	0Dl	0Al	0dl
==	==	==	==
*-	*-	*-	*-
!!!RDF**kern: l=long note in original notation
!!!RDF**kern: i=editorial accidental
!!!RDF**kern: V=start of tuplet marker
!!!RDF**kern: Z=end of tuplet marker
!!!ENC:	Chris Gage 06-25-2012
!!!END:	2012/06/29/
!!!EED:	Jesse Rodin
!!!EEV:	2012/07/16/
!!!ONB:	Translated from MusicXML and edited on 2012/07/16/ by Craig Sapp
!!muse2ps: C^@{COM}^i2I150v85,85,85,150Q16
